X:333
T:Spanish Dance,The. JaW.333
M:2/4
L:1/8
Q:1/4=100
S:James Winder Ms, Lancashire, 1835-41
R:.Country Dance
O:England
A:Wyresdale,Lancashire
N:Bar 10 is my addition, being absent from MS..CGP..
Z:vmp.Chris Partington, Aug 2004
K:C
c/e/|gg g/a/b/c’/|(ge).g a/g/|(fd).f g/f/|ecc (c/e/)|!
gg g/a/b/c’/|(ge).g a/g/|(fd).f g/f/|ecc :|!
|:G/B/|.d.d.d (c/d/)|”_Bar added”.e.e.e (d/e/)|fdec|dgG G/B/|!
ddd (c/d/)|.e.e.e (d/e/)|fdec|g3|]

